fire-station.svg

<svg fill="currentColor" viewBox="0 0 24 24"><path d="M13.11 10.39c.26-.24.42-.64.39-1V9.2c-.07-.39-.32-.6-.58-.83-.14-.13-.29-.25-.42-.42l-.24-.45c-.13.3-.14.58-.09.91.02.09.04.19.07.28.05.23.11.45.05.7-.09.39-.39.78-.92.91.3.29.78.52 1.27.36zM2 22V7c0-.26.11-.5.29-.71C2.5 6.11 2.74 6 3 6h4V2h10v4h4c.27 0 .5.11.71.29.19.21.29.45.29.71v15h-3v-5s0-2-4-2-4 2-4 2v5H8v-5H4v5zM14.47 7.62h.03l-.36-.37-.89-.75c-.64-.62-.79-1.68-.38-2.5-.37.1-.77.33-1.08.58-1.11.92-1.56 2.54-1.03 3.92l.04.15c0 .1-.07.19-.16.22-.09.05-.2.02-.28-.05l-.06-.08c-.49-.63-.57-1.53-.24-2.24-.72.59-1.1 1.6-1.06 2.56l.13.66c.06.28.17.53.32.78.45.74 1.26 1.29 2.13 1.4.92.1 1.92-.05 2.63-.71.79-.74 1.08-1.89.66-2.9l-.06-.12z"/></svg>

<svg  viewBox="0 0 24 24" fill="currentColor"><path  d="M13.11 10.39C13.37 10.15 13.53 9.75 13.5 9.39V9.2C13.43 8.81 13.18 8.6 12.92 8.37C12.78 8.24 12.63 8.12 12.5 7.95L12.26 7.5C12.13 7.8 12.12 8.08 12.17 8.41C12.19 8.5 12.21 8.6 12.24 8.69C12.29 8.92 12.35 9.14 12.29 9.39C12.2 9.78 11.9 10.17 11.37 10.3C11.67 10.59 12.15 10.82 12.64 10.66L13.11 10.39M2 22V7C2 6.74 2.11 6.5 2.29 6.29C2.5 6.11 2.74 6 3 6H7V2H17V6H21C21.27 6 21.5 6.11 21.71 6.29C21.9 6.5 22 6.74 22 7V22H19V17C19 17 19 15 15 15C11 15 11 17 11 17V22H8V17H4V22H2M14.47 7.62H14.5L14.14 7.25L13.25 6.5C12.61 5.88 12.46 4.82 12.87 4C12.5 4.1 12.1 4.33 11.79 4.58C10.68 5.5 10.23 7.12 10.76 8.5L10.8 8.65C10.8 8.75 10.73 8.84 10.64 8.87C10.55 8.92 10.44 8.89 10.36 8.82L10.3 8.74C9.81 8.11 9.73 7.21 10.06 6.5C9.34 7.09 8.96 8.1 9 9.06L9.13 9.72C9.19 10 9.3 10.25 9.45 10.5C9.9 11.24 10.71 11.79 11.58 11.9C12.5 12 13.5 11.85 14.21 11.19C15 10.45 15.29 9.3 14.87 8.29L14.81 8.17L14.47 7.62Z"/></svg>
